faenza/file.svg

<?xml version="1.0" encoding="UTF-8" standalone="no"?>
<!-- Created with Inkscape (http://www.inkscape.org/) -->

<svg
   xmlns:dc="http://purl.org/dc/elements/1.1/"
   xmlns:cc="http://creativecommons.org/ns#"
   xmlns:rdf="http://www.w3.org/1999/02/22-rdf-syntax-ns#"
   xmlns:svg="http://www.w3.org/2000/svg"
   xmlns="http://www.w3.org/2000/svg"
   xmlns:xlink="http://www.w3.org/1999/xlink"
   xmlns:inkscape="http://www.inkscape.org/namespaces/inkscape"
   version="1.0"
   width="96"
   height="96"
   id="svg2408"
   style="display:inline">
  <defs
     id="defs2410">
    <linearGradient
       x1="45.447727"
       y1="92.539597"
       x2="45.447727"
       y2="7.0165396"
       id="ButtonShadow"
       gradientUnits="userSpaceOnUse"
       gradientTransform="scale(1.0058652,0.994169)">
      <stop
         id="stop3750"
         style="stop-color:#000000;stop-opacity:1"
         offset="0" />
      <stop
         id="stop3752"
         style="stop-color:#000000;stop-opacity:0.58823532"
         offset="1" />
    </linearGradient>
    <linearGradient
       id="linearGradient3700">
      <stop
         id="stop3702"
         style="stop-color:#e6e6e6;stop-opacity:1"
         offset="0" />
      <stop
         id="stop3704"
         style="stop-color:#f5f5f5;stop-opacity:1"
         offset="1" />
    </linearGradient>
    <linearGradient
       x1="48"
       y1="90"
       x2="48"
       y2="5.9877172"
       id="linearGradient3706"
       xlink:href="#linearGradient3700"
       gradientUnits="userSpaceOnUse" />
    <filter
       color-interpolation-filters="sRGB"
       id="filter3174">
      <feGaussianBlur
         id="feGaussianBlur3176"
         stdDeviation="1.71" />
    </filter>
    <linearGradient
       x1="45.447727"
       y1="92.539597"
       x2="45.447727"
       y2="7.0165396"
       id="ButtonShadow-0"
       gradientUnits="userSpaceOnUse"
       gradientTransform="matrix(1.0058652,0,0,0.994169,100,0)">
      <stop
         id="stop3750-8"
         style="stop-color:#000000;stop-opacity:1"
         offset="0" />
      <stop
         id="stop3752-5"
         style="stop-color:#000000;stop-opacity:0.58823532"
         offset="1" />
    </linearGradient>
    <linearGradient
       x1="32.251034"
       y1="6.1317081"
       x2="32.251034"
       y2="90.238609"
       id="linearGradient3780"
       xlink:href="#ButtonShadow-0"
       gradientUnits="userSpaceOnUse"
       gradientTransform="matrix(1.0238095,0,0,1.0119048,-1.1428571,-98.071429)" />
    <linearGradient
       x1="32.251034"
       y1="6.1317081"
       x2="32.251034"
       y2="90.238609"
       id="linearGradient3772"
       xlink:href="#ButtonShadow-0"
       gradientUnits="userSpaceOnUse"
       gradientTransform="matrix(1.0238095,0,0,1.0119048,-1.1428571,-98.071429)" />
    <linearGradient
       x1="32.251034"
       y1="6.1317081"
       x2="32.251034"
       y2="90.238609"
       id="linearGradient3725"
       xlink:href="#ButtonShadow-0"
       gradientUnits="userSpaceOnUse"
       gradientTransform="matrix(1.0238095,0,0,1.0119048,-1.1428571,-98.071429)" />
    <linearGradient
       x1="32.251034"
       y1="6.1317081"
       x2="32.251034"
       y2="90.238609"
       id="linearGradient3721"
       xlink:href="#ButtonShadow-0"
       gradientUnits="userSpaceOnUse"
       gradientTransform="translate(0,-97)" />
    <linearGradient
       x1="32.251034"
       y1="6.1317081"
       x2="32.251034"
       y2="90.238609"
       id="linearGradient3760"
       xlink:href="#ButtonShadow-0"
       gradientUnits="userSpaceOnUse"
       gradientTransform="matrix(1.0238095,0,0,1.0119048,-1.1428571,-98.071429)" />
    <linearGradient
       id="linearGradient3737-1">
      <stop
         id="stop3739-9"
         style="stop-color:#ffffff;stop-opacity:1"
         offset="0" />
      <stop
         id="stop3741-3"
         style="stop-color:#ffffff;stop-opacity:0"
         offset="1" />
    </linearGradient>
    <radialGradient
       cx="48"
       cy="90.171875"
       r="42"
       fx="48"
       fy="90.171875"
       id="radialGradient2886"
       xlink:href="#linearGradient3737-0"
       gradientUnits="userSpaceOnUse"
       gradientTransform="matrix(1.1573129,0,0,0.99590774,-7.551021,0.1971319)" />
    <linearGradient
       id="linearGradient3737-0">
      <stop
         id="stop3739-6"
         style="stop-color:#ffffff;stop-opacity:1"
         offset="0" />
      <stop
         id="stop3741-0"
         style="stop-color:#ffffff;stop-opacity:0"
         offset="1" />
    </linearGradient>
    <linearGradient
       x1="36.357143"
       y1="6"
       x2="36.357143"
       y2="63.893143"
       id="linearGradient3923"
       xlink:href="#linearGradient3737-1"
       gradientUnits="userSpaceOnUse" />
    <linearGradient
       id="linearGradient3737-9">
      <stop
         id="stop3739-2"
         style="stop-color:#ffffff;stop-opacity:1"
         offset="0" />
      <stop
         id="stop3741-1"
         style="stop-color:#ffffff;stop-opacity:0"
         offset="1" />
    </linearGradient>
    <clipPath
       id="clipPath3613">
      <rect
         width="84"
         height="84"
         rx="6"
         ry="6"
         x="6"
         y="6"
         id="rect3615"
         style="fill:#ffffff;fill-opacity:1;fill-rule:nonzero;stroke:none" />
    </clipPath>
    <filter
       x="-0.192"
       y="-0.192"
       width="1.3839999"
       height="1.3839999"
       color-interpolation-filters="sRGB"
       id="filter3794">
      <feGaussianBlur
         id="feGaussianBlur3796"
         stdDeviation="5.28" />
    </filter>
    <linearGradient
       x1="48"
       y1="20.220806"
       x2="48"
       y2="138.66119"
       id="linearGradient2890"
       xlink:href="#linearGradient3737-9"
       gradientUnits="userSpaceOnUse" />
  </defs>
  <metadata
     id="metadata2413">
    <rdf:RDF>
      <cc:Work
         rdf:about="">
        <dc:format>image/svg+xml</dc:format>
        <dc:type
           rdf:resource="http://purl.org/dc/dcmitype/StillImage" />
      </cc:Work>
    </rdf:RDF>
  </metadata>
  <g
     id="layer2"
     style="display:none">
    <rect
       width="86"
       height="85"
       rx="6"
       ry="6"
       x="5"
       y="7"
       id="rect3745"
       style="opacity:0.9;fill:url(#ButtonShadow);fill-opacity:1;fill-rule:nonzero;stroke:none;filter:url(#filter3174)" />
  </g>
  <g
     id="layer6"
     style="display:inline">
    <path
       d="m 12,-95.03125 c -5.5110903,0 -10.03125,4.52016 -10.03125,10.03125 l 0,71 c 0,5.5110902 4.5201598,10.03125 10.03125,10.03125 l 72,0 c 5.51109,0 10.03125,-4.5201597 10.03125,-10.03125 l 0,-71 c 0,-5.51109 -4.52016,-10.03125 -10.03125,-10.03125 l -72,0 z"
       transform="scale(1,-1)"
       id="path3786"
       style="opacity:0.07999998;fill:url(#linearGradient3760);fill-opacity:1;fill-rule:nonzero;stroke:none;display:inline" />
    <path
       d="m 12,-94.03125 c -4.971633,0 -9.03125,4.059617 -9.03125,9.03125 l 0,71 c 0,4.9716329 4.0596171,9.03125 9.03125,9.03125 l 72,0 c 4.971633,0 9.03125,-4.059617 9.03125,-9.03125 l 0,-71 c 0,-4.971633 -4.059617,-9.03125 -9.03125,-9.03125 l -72,0 z"
       transform="scale(1,-1)"
       id="path3778"
       style="opacity:0.1;fill:url(#linearGradient3780);fill-opacity:1;fill-rule:nonzero;stroke:none;display:inline" />
    <path
       d="m 12,-93 c -4.4091333,0 -8,3.590867 -8,8 l 0,71 c 0,4.4091333 3.5908667,8 8,8 l 72,0 c 4.409133,0 8,-3.5908667 8,-8 l 0,-71 c 0,-4.409133 -3.590867,-8 -8,-8 l -72,0 z"
       transform="scale(1,-1)"
       id="path3770"
       style="opacity:0.2;fill:url(#linearGradient3772);fill-opacity:1;fill-rule:nonzero;stroke:none;display:inline" />
    <rect
       width="86"
       height="85"
       rx="7"
       ry="7"
       x="5"
       y="-92"
       transform="scale(1,-1)"
       id="rect3723"
       style="opacity:0.3;fill:url(#linearGradient3725);fill-opacity:1;fill-rule:nonzero;stroke:none;display:inline" />
    <rect
       width="84"
       height="84"
       rx="6"
       ry="6"
       x="6"
       y="-91"
       transform="scale(1,-1)"
       id="rect3716"
       style="opacity:0.45;fill:url(#linearGradient3721);fill-opacity:1;fill-rule:nonzero;stroke:none;display:inline" />
  </g>
  <g
     id="layer1"
     style="display:inline">
    <rect
       width="84"
       height="84"
       rx="6"
       ry="6"
       x="6"
       y="6"
       id="rect2419"
       style="fill:url(#linearGradient3706);fill-opacity:1;fill-rule:nonzero;stroke:none" />
    <path
       d="M 12,6 C 8.676,6 6,8.676 6,12 l 0,2 0,68 0,2 c 0,0.334721 0.04135,0.6507 0.09375,0.96875 0.0487,0.295596 0.09704,0.596915 0.1875,0.875 0.0099,0.03038 0.02089,0.0636 0.03125,0.09375 0.09886,0.287771 0.23488,0.547452 0.375,0.8125 0.144592,0.273507 0.315616,0.535615 0.5,0.78125 0.184384,0.245635 0.373776,0.473472 0.59375,0.6875 0.439947,0.428056 0.94291,0.814526 1.5,1.09375 0.278545,0.139612 0.573473,0.246947 0.875,0.34375 -0.256202,-0.100222 -0.486711,-0.236272 -0.71875,-0.375 -0.0074,-0.0044 -0.02387,0.0045 -0.03125,0 -0.03193,-0.0193 -0.06229,-0.04251 -0.09375,-0.0625 -0.120395,-0.0767 -0.231023,-0.163513 -0.34375,-0.25 -0.106173,-0.0808 -0.213281,-0.161112 -0.3125,-0.25 C 8.47832,88.557317 8.30879,88.373362 8.15625,88.1875 8.048671,88.057245 7.937856,87.922215 7.84375,87.78125 7.81866,87.74287 7.8053,87.69538 7.78125,87.65625 7.71649,87.553218 7.651022,87.451733 7.59375,87.34375 7.492742,87.149044 7.388075,86.928049 7.3125,86.71875 7.3045,86.69694 7.28891,86.6782 7.28125,86.65625 7.24942,86.5643 7.24545,86.469419 7.21875,86.375 7.188418,86.268382 7.148361,86.171969 7.125,86.0625 7.052121,85.720988 7,85.364295 7,85 L 7,83 7,15 7,13 C 7,10.218152 9.218152,8 12,8 l 2,0 68,0 2,0 c 2.781848,0 5,2.218152 5,5 l 0,2 0,68 0,2 c 0,0.364295 -0.05212,0.720988 -0.125,1.0625 -0.04415,0.206893 -0.08838,0.397658 -0.15625,0.59375 -0.0077,0.02195 -0.0233,0.04069 -0.03125,0.0625 -0.06274,0.173739 -0.138383,0.367449 -0.21875,0.53125 -0.04158,0.0828 -0.07904,0.169954 -0.125,0.25 -0.0546,0.09721 -0.126774,0.18835 -0.1875,0.28125 -0.09411,0.140965 -0.204921,0.275995 -0.3125,0.40625 -0.143174,0.17445 -0.303141,0.346998 -0.46875,0.5 -0.01117,0.0102 -0.01998,0.02115 -0.03125,0.03125 -0.138386,0.125556 -0.285091,0.234436 -0.4375,0.34375 -0.102571,0.07315 -0.204318,0.153364 -0.3125,0.21875 -0.0074,0.0045 -0.02384,-0.0044 -0.03125,0 -0.232039,0.138728 -0.462548,0.274778 -0.71875,0.375 0.301527,-0.0968 0.596455,-0.204138 0.875,-0.34375 0.55709,-0.279224 1.060053,-0.665694 1.5,-1.09375 0.219973,-0.214028 0.409366,-0.441865 0.59375,-0.6875 0.184384,-0.245635 0.355408,-0.507743 0.5,-0.78125 0.14012,-0.265048 0.276135,-0.524729 0.375,-0.8125 0.01041,-0.03078 0.02133,-0.06274 0.03125,-0.09375 0.09046,-0.278085 0.1388,-0.579404 0.1875,-0.875 C 89.95865,84.6507 90,84.334721 90,84 l 0,-2 0,-68 0,-2 C 90,8.676 87.324,6 84,6 L 12,6 z"
       inkscape:connector-curvature="0"
       id="rect3728"
       style="opacity:0.5;fill:url(#linearGradient3923);fill-opacity:1;fill-rule:nonzero;stroke:none;display:inline" />
    <path
       d="M 12,90 C 8.676,90 6,87.324 6,84 L 6,82 6,14 6,12 c 0,-0.334721 0.04135,-0.6507 0.09375,-0.96875 0.0487,-0.295596 0.09704,-0.596915 0.1875,-0.875 C 6.29113,10.12587 6.302142,10.09265 6.3125,10.0625 6.411365,9.774729 6.5473802,9.515048 6.6875,9.25 6.8320918,8.976493 7.0031161,8.714385 7.1875,8.46875 7.3718839,8.223115 7.5612765,7.995278 7.78125,7.78125 8.221197,7.353194 8.72416,6.966724 9.28125,6.6875 9.559795,6.547888 9.8547231,6.440553 10.15625,6.34375 9.9000482,6.443972 9.6695391,6.580022 9.4375,6.71875 c -0.00741,0.0044 -0.023866,-0.0045 -0.03125,0 -0.031933,0.0193 -0.062293,0.04251 -0.09375,0.0625 -0.120395,0.0767 -0.2310226,0.163513 -0.34375,0.25 -0.1061728,0.0808 -0.2132809,0.161112 -0.3125,0.25 C 8.4783201,7.442683 8.3087904,7.626638 8.15625,7.8125 8.0486711,7.942755 7.9378561,8.077785 7.84375,8.21875 7.818661,8.25713 7.805304,8.30462 7.78125,8.34375 7.716487,8.446782 7.6510225,8.548267 7.59375,8.65625 7.4927417,8.850956 7.3880752,9.071951 7.3125,9.28125 7.30454,9.30306 7.288911,9.3218 7.28125,9.34375 7.2494249,9.4357 7.2454455,9.530581 7.21875,9.625 7.1884177,9.731618 7.1483606,9.828031 7.125,9.9375 7.0521214,10.279012 7,10.635705 7,11 l 0,2 0,68 0,2 c 0,2.781848 2.2181517,5 5,5 l 2,0 68,0 2,0 c 2.781848,0 5,-2.218152 5,-5 l 0,-2 0,-68 0,-2 C 89,10.635705 88.94788,10.279012 88.875,9.9375 88.83085,9.730607 88.78662,9.539842 88.71875,9.34375 88.71105,9.3218 88.69545,9.30306 88.6875,9.28125 88.62476,9.107511 88.549117,8.913801 88.46875,8.75 88.42717,8.6672 88.38971,8.580046 88.34375,8.5 88.28915,8.40279 88.216976,8.31165 88.15625,8.21875 88.06214,8.077785 87.951329,7.942755 87.84375,7.8125 87.700576,7.63805 87.540609,7.465502 87.375,7.3125 87.36383,7.3023 87.35502,7.29135 87.34375,7.28125 87.205364,7.155694 87.058659,7.046814 86.90625,6.9375 86.803679,6.86435 86.701932,6.784136 86.59375,6.71875 c -0.0074,-0.0045 -0.02384,0.0044 -0.03125,0 -0.232039,-0.138728 -0.462548,-0.274778 -0.71875,-0.375 0.301527,0.0968 0.596455,0.204138 0.875,0.34375 0.55709,0.279224 1.060053,0.665694 1.5,1.09375 0.219973,0.214028 0.409366,0.441865 0.59375,0.6875 0.184384,0.245635 0.355408,0.507743 0.5,0.78125 0.14012,0.265048 0.276135,0.524729 0.375,0.8125 0.01041,0.03078 0.02133,0.06274 0.03125,0.09375 0.09046,0.278085 0.1388,0.579404 0.1875,0.875 C 89.95865,11.3493 90,11.665279 90,12 l 0,2 0,68 0,2 c 0,3.324 -2.676,6 -6,6 l -72,0 z"
       inkscape:connector-curvature="0"
       id="path3615"
       style="opacity:0.4;fill:url(#radialGradient2886);fill-opacity:1;fill-rule:nonzero;stroke:none;display:inline" />
    <rect
       width="84"
       height="84"
       rx="6"
       ry="6"
       x="-94"
       y="6"
       id="rect3654"
       style="fill:#ff00ff;fill-opacity:1;fill-rule:nonzero;stroke:none" />
    <rect
       width="16"
       height="16"
       x="112"
       y="8"
       id="rect3797"
       style="color:#000000;fill:#ffffff;stroke:#000000;stroke-width:0.5;stroke-linecap:round;stroke-linejoin:miter;stroke-miterlimit:4;stroke-opacity:1;stroke-dasharray:none;stroke-dashoffset:8.6;marker:none;visibility:visible;display:inline;overflow:visible;enable-background:accumulate" />
    <text
       x="131.39261"
       y="11.969256"
       id="text3799"
       xml:space="preserve"
       style="font-size:4px;font-style:normal;font-variant:normal;font-weight:normal;font-stretch:normal;text-align:start;line-height:125%;writing-mode:lr-tb;text-anchor:start;fill:#000000;fill-opacity:1;stroke:none;display:inline;font-family:Liberation Sans;-inkscape-font-specification:Liberation Sans"><tspan
         x="131.39261"
         y="11.969256"
         id="tspan3801">Width: 2px</tspan><tspan
         x="131.39261"
         y="16.969257"
         id="tspan3803">Blur: 12</tspan><tspan
         x="131.39261"
         y="21.969257"
         id="tspan3807">Opacity: 60</tspan></text>
  </g>
  <g
     id="layer3">
    <rect
       width="66"
       height="66"
       rx="12"
       ry="12"
       x="15"
       y="15"
       clip-path="url(#clipPath3613)"
       id="rect3171"
       style="opacity:0.5;fill:url(#linearGradient2890);fill-opacity:1;fill-rule:nonzero;stroke:#ffffff;stroke-width:0.5;stroke-linecap:round;stroke-linejoin:miter;stroke-miterlimit:4;stroke-opacity:1;stroke-dasharray:none;stroke-dashoffset:0;filter:url(#filter3794)" />
  </g>
</svg>

<svg xmlns="http://www.w3.org/2000/svg" xmlns:xlink="http://www.w3.org/1999/xlink" version="1.0" width="96" height="96"><defs><linearGradient x1="45.448" y1="92.54" x2="45.448" y2="7.017" id="f" gradientUnits="userSpaceOnUse" gradientTransform="scale(1.00587 .99417)"><stop offset="0"/><stop offset="1" stop-opacity=".588"/></linearGradient><linearGradient id="a"><stop offset="0" stop-color="#e6e6e6"/><stop offset="1" stop-color="#f5f5f5"/></linearGradient><linearGradient x1="48" y1="90" x2="48" y2="5.988" id="m" xlink:href="#a" gradientUnits="userSpaceOnUse"/><filter color-interpolation-filters="sRGB" id="g"><feGaussianBlur stdDeviation="1.71"/></filter><linearGradient x1="45.448" y1="92.54" x2="45.448" y2="7.017" id="b" gradientUnits="userSpaceOnUse" gradientTransform="matrix(1.00587 0 0 .99417 100 0)"><stop offset="0"/><stop offset="1" stop-opacity=".588"/></linearGradient><linearGradient x1="32.251" y1="6.132" x2="32.251" y2="90.239" id="i" xlink:href="#b" gradientUnits="userSpaceOnUse" gradientTransform="matrix(1.0238 0 0 1.0119 -1.143 -98.071)"/><linearGradient x1="32.251" y1="6.132" x2="32.251" y2="90.239" id="j" xlink:href="#b" gradientUnits="userSpaceOnUse" gradientTransform="matrix(1.0238 0 0 1.0119 -1.143 -98.071)"/><linearGradient x1="32.251" y1="6.132" x2="32.251" y2="90.239" id="k" xlink:href="#b" gradientUnits="userSpaceOnUse" gradientTransform="matrix(1.0238 0 0 1.0119 -1.143 -98.071)"/><linearGradient x1="32.251" y1="6.132" x2="32.251" y2="90.239" id="l" xlink:href="#b" gradientUnits="userSpaceOnUse" gradientTransform="translate(0 -97)"/><linearGradient x1="32.251" y1="6.132" x2="32.251" y2="90.239" id="h" xlink:href="#b" gradientUnits="userSpaceOnUse" gradientTransform="matrix(1.0238 0 0 1.0119 -1.143 -98.071)"/><linearGradient id="d"><stop offset="0" stop-color="#fff"/><stop offset="1" stop-color="#fff" stop-opacity="0"/></linearGradient><radialGradient cx="48" cy="90.172" r="42" fx="48" fy="90.172" id="o" xlink:href="#c" gradientUnits="userSpaceOnUse" gradientTransform="matrix(1.15731 0 0 .9959 -7.551 .197)"/><linearGradient id="c"><stop offset="0" stop-color="#fff"/><stop offset="1" stop-color="#fff" stop-opacity="0"/></linearGradient><linearGradient x1="36.357" y1="6" x2="36.357" y2="63.893" id="n" xlink:href="#d" gradientUnits="userSpaceOnUse"/><linearGradient id="e"><stop offset="0" stop-color="#fff"/><stop offset="1" stop-color="#fff" stop-opacity="0"/></linearGradient><clipPath id="p"><rect width="84" height="84" rx="6" ry="6" x="6" y="6" fill="#fff"/></clipPath><filter x="-.192" y="-.192" width="1.384" height="1.384" color-interpolation-filters="sRGB" id="r"><feGaussianBlur stdDeviation="5.28"/></filter><linearGradient x1="48" y1="20.221" x2="48" y2="138.661" id="q" xlink:href="#e" gradientUnits="userSpaceOnUse"/></defs><g transform="scale(1 -1)"><path d="M12-95.031c-5.511 0-10.031 4.52-10.031 10.031v71C1.969-8.489 6.489-3.969 12-3.969h72c5.511 0 10.031-4.52 10.031-10.031v-71c0-5.511-4.52-10.031-10.031-10.031H12z" opacity=".08" fill="url(#h)"/><path d="M12-94.031c-4.972 0-9.031 4.06-9.031 9.031v71c0 4.972 4.06 9.031 9.031 9.031h72c4.972 0 9.031-4.06 9.031-9.031v-71c0-4.972-4.06-9.031-9.031-9.031H12z" opacity=".1" fill="url(#i)"/><path d="M12-93c-4.41 0-8 3.59-8 8v71c0 4.41 3.59 8 8 8h72c4.41 0 8-3.59 8-8v-71c0-4.41-3.59-8-8-8H12z" opacity=".2" fill="url(#j)"/><rect width="86" height="85" rx="7" ry="7" x="5" y="-92" opacity=".3" fill="url(#k)"/><rect width="84" height="84" rx="6" ry="6" x="6" y="-91" opacity=".45" fill="url(#l)"/></g><rect width="84" height="84" rx="6" ry="6" x="6" y="6" fill="url(#m)"/><path d="M12 6c-3.324 0-6 2.676-6 6v72c0 .335.041.65.094.969.048.295.097.597.187.875l.032.094c.098.287.234.547.375.812.144.274.315.536.5.781a6.105 6.105 0 0 0 2.094 1.781c.278.14.573.247.874.344a4.843 4.843 0 0 1-.719-.375c-.007-.004-.023.005-.03 0-.033-.02-.063-.042-.095-.062-.12-.077-.23-.164-.343-.25-.106-.081-.214-.161-.313-.25a5.042 5.042 0 0 1-.5-.531 5.092 5.092 0 0 1-.312-.407c-.025-.038-.039-.086-.063-.125-.065-.103-.13-.204-.187-.312a5.371 5.371 0 0 1-.282-.625c-.008-.022-.023-.04-.03-.063-.033-.092-.037-.187-.063-.281-.03-.107-.07-.203-.094-.313A5.098 5.098 0 0 1 7 85V13c0-2.782 2.218-5 5-5h72c2.782 0 5 2.218 5 5v72c0 .364-.052.721-.125 1.063a4.896 4.896 0 0 1-.156.593c-.008.022-.024.04-.031.063a5.482 5.482 0 0 1-.22.531c-.04.083-.078.17-.124.25-.055.097-.127.188-.188.281a5.092 5.092 0 0 1-.312.406 5.05 5.05 0 0 1-.469.5l-.031.032a4.818 4.818 0 0 1-.438.344c-.102.073-.204.153-.312.218-.008.005-.024-.004-.031 0a4.843 4.843 0 0 1-.72.375c.302-.097.597-.204.876-.344a6.105 6.105 0 0 0 2.094-1.78c.184-.246.355-.508.5-.782a5.69 5.69 0 0 0 .374-.813l.032-.093c.09-.278.139-.58.187-.875.053-.318.094-.634.094-.969V12c0-3.324-2.676-6-6-6H12z" opacity=".5" fill="url(#n)"/><path d="M12 90c-3.324 0-6-2.676-6-6V12c0-.335.041-.65.094-.969.048-.295.097-.597.187-.875l.032-.094a5.69 5.69 0 0 1 .375-.812c.144-.274.315-.536.5-.781a6.105 6.105 0 0 1 2.094-1.781c.278-.14.573-.247.874-.344-.256.1-.486.236-.719.375-.007.004-.023-.005-.03 0-.033.019-.063.042-.095.062-.12.077-.23.164-.343.25-.106.081-.214.161-.313.25a5.042 5.042 0 0 0-.5.532c-.107.13-.218.265-.312.406-.025.038-.039.086-.063.125-.065.103-.13.204-.187.312a5.371 5.371 0 0 0-.282.625c-.007.022-.023.04-.03.063-.033.092-.037.187-.063.281-.03.107-.07.203-.094.313A5.098 5.098 0 0 0 7 11v72c0 2.782 2.218 5 5 5h72c2.782 0 5-2.218 5-5V11c0-.364-.052-.721-.125-1.063a4.896 4.896 0 0 0-.156-.593c-.008-.022-.024-.04-.031-.063a5.482 5.482 0 0 0-.22-.531c-.04-.083-.078-.17-.124-.25-.055-.097-.127-.188-.188-.281a5.092 5.092 0 0 0-.312-.406 5.05 5.05 0 0 0-.469-.5l-.031-.032a4.818 4.818 0 0 0-.438-.343c-.102-.074-.204-.154-.312-.22-.008-.004-.024.005-.031 0a4.843 4.843 0 0 0-.72-.374c.302.097.597.204.876.343a6.105 6.105 0 0 1 2.094 1.782c.184.245.355.507.5.781.14.265.276.525.374.813l.032.093c.09.278.139.58.187.875.053.318.094.634.094.969v72c0 3.324-2.676 6-6 6H12z" opacity=".4" fill="url(#o)"/><rect width="84" height="84" rx="6" ry="6" x="-94" y="6" fill="#f0f"/><path style="marker:none" color="#000" fill="#fff" stroke="#000" stroke-width=".5" stroke-linecap="round" stroke-dashoffset="8.6" overflow="visible" enable-background="accumulate" d="M112 8h16v16h-16z"/><text x="131.393" y="11.969" style="text-align:start;line-height:125%;-inkscape-font-specification:Liberation Sans" font-size="4" font-weight="400" font-family="Liberation Sans"><tspan x="131.393" y="11.969">Width: 2px</tspan><tspan x="131.393" y="16.969">Blur: 12</tspan><tspan x="131.393" y="21.969">Opacity: 60</tspan></text><g><rect width="66" height="66" rx="12" ry="12" x="15" y="15" clip-path="url(#p)" opacity=".5" fill="url(#q)" stroke="#fff" stroke-width=".5" stroke-linecap="round" filter="url(#r)"/></g></svg>
